files/2/64x64/places/folder-download.svg

<?xml version="1.0" encoding="UTF-8" standalone="no"?>
<svg
   xmlns:dc="http://purl.org/dc/elements/1.1/"
   xmlns:cc="http://creativecommons.org/ns#"
   xmlns:rdf="http://www.w3.org/1999/02/22-rdf-syntax-ns#"
   xmlns:svg="http://www.w3.org/2000/svg"
   xmlns="http://www.w3.org/2000/svg"
   xmlns:sodipodi="http://sodipodi.sourceforge.net/DTD/sodipodi-0.dtd"
   xmlns:inkscape="http://www.inkscape.org/namespaces/inkscape"
   width="64"
   height="64"
   viewBox="0 0 64 64"
   id="svg3055"
   version="1.1"
   inkscape:version="0.48.4 r9939"
   sodipodi:docname="folder-download.svg">
  <metadata
     id="metadata3077">
    <rdf:RDF>
      <cc:Work
         rdf:about="">
        <dc:format>image/svg+xml</dc:format>
        <dc:type
           rdf:resource="http://purl.org/dc/dcmitype/StillImage" />
      </cc:Work>
    </rdf:RDF>
  </metadata>
  <defs
     id="defs3075" />
  <sodipodi:namedview
     pagecolor="#ffffff"
     bordercolor="#666666"
     borderopacity="1"
     objecttolerance="10"
     gridtolerance="10"
     guidetolerance="10"
     inkscape:pageopacity="0"
     inkscape:pageshadow="2"
     inkscape:window-width="658"
     inkscape:window-height="480"
     id="namedview3073"
     showgrid="false"
     inkscape:zoom="3.6875"
     inkscape:cx="45.016949"
     inkscape:cy="24.949153"
     inkscape:window-x="0"
     inkscape:window-y="0"
     inkscape:window-maximized="0"
     inkscape:current-layer="svg3055" />
  <path
     inkscape:connector-curvature="0"
     id="path3009"
     d="M 8.691406,51 C 7.773438,50.90625 7,49.984376 7,48.996094 L 7,11.011718 C 7,9.9609383 7.890624,9.0000003 8.875,9.0000003 l 46.25,0 c 0.984376,0 1.875,0.960938 1.875,2.0117177 l 0,32.472658 c 0,1.054686 -1.4375,2.566406 -2.417968,2.566406 l -16.929688,-0.03126 0,2.648436 c 0,1.046876 -0.82422,2.332032 -1.800782,2.332032 L 8.875,51 c -0.058594,0 -0.117188,0 -0.183594,0 z"
     style="fill:#e9a439;fill-opacity:1;stroke:#e9a439;stroke-width:2;stroke-opacity:1" />
  <path
     inkscape:connector-curvature="0"
     id="path3011"
     d="M 3.097656,13 C 1.960938,13.09375 1,14.015624 1,15.003906 L 1,52.988282 C 1,54.039062 2.105468,55 3.324218,55 l 57.351564,0 C 61.894532,55 63,54.039062 63,52.988282 l 0,-32.472658 c 0,-1.054686 -1.78125,-2.566406 -3,-2.566406 l -20.992188,0.03125 0,-2.648436 C 39.007812,14.285156 37.988282,13 36.773438,13 l -33.44922,0 c -0.070312,0 -0.14453,0 -0.226562,0 z"
     style="fill:#f5c14e;fill-opacity:1;stroke:#e9a439;stroke-width:2;stroke-opacity:1" />
  <path
     style="fill:#d0a444;fill-opacity:1"
     inkscape:connector-curvature="0"
     id="path3065"
     d="m 25.671875,36.003906 c -0.441406,0.01953 -0.855469,0.1875 -1.167969,0.460938 -0.621094,0.550781 -0.679687,1.480468 -0.109375,2.070312 l 5.253907,4.996094 c 0.367187,0.316406 0.902343,0.503906 1.421874,0.464844 0.417969,-0.02734 0.828126,-0.207032 1.128907,-0.464844 l 5.253906,-4.816406 c 0.332031,-0.28125 0.53125,-0.667969 0.546875,-1.070313 0.03125,-0.632812 -0.425781,-1.253906 -1.09375,-1.5 -0.671875,-0.246093 -1.507812,-0.101562 -2.007812,0.359375 l -3.902344,3.421875 -4.085938,-3.601562 c -0.339844,-0.246094 -0.796875,-0.34375 -1.238281,-0.320313 z" />
  <path
     style="fill:#d0a444;fill-opacity:1"
     inkscape:connector-curvature="0"
     id="path3067"
     d="m 31,26 c -0.523438,0 -1,0.53125 -1,1.125 l 0,5.707031 C 29.980469,33.4375 30.464844,34 31,34 c 0.03125,0 0.0625,0 0.09375,0 C 31.597656,33.949219 32.019531,33.40625 32,32.832031 L 32,27.125 C 32,26.53125 31.523438,26 31,26 z" />
  <path
     style="fill:#d0a444;fill-opacity:1"
     inkscape:connector-curvature="0"
     id="path3069"
     d="m 27,30 c -0.566406,0 -1.074219,0.417969 -0.992188,0.8125 l 0,2.464844 c -0.01953,0.398437 0.523438,0.757812 1.085938,0.71875 0.492188,-0.03906 0.917969,-0.371094 0.898438,-0.71875 l 0,-2.464844 C 28.074219,30.417969 27.566406,30 27,30 z" />
  <path
     style="fill:#d0a444;fill-opacity:1"
     inkscape:connector-curvature="0"
     id="path3071"
     d="m 35,30 c -0.566406,0 -1.074219,0.417969 -0.992188,0.8125 l 0,2.464844 c -0.01953,0.398437 0.523438,0.757812 1.085938,0.71875 0.492188,-0.03906 0.917969,-0.371094 0.898438,-0.71875 l 0,-2.464844 C 36.074219,30.417969 35.566406,30 35,30 z" />
</svg>

<svg width="64" xmlns="http://www.w3.org/2000/svg" height="64" viewBox="0 0 64 64" xmlns:xlink="http://www.w3.org/1999/xlink">
<g style="stroke:#e9a439">
<path style="fill:#e9a439" d="M 4.345703 24.5 C 3.886719 24.453125 3.5 23.992188 3.5 23.498047 L 3.5 4.505859 C 3.5 3.980469 3.945312 3.5 4.4375 3.5 L 27.5625 3.5 C 28.054688 3.5 28.5 3.980469 28.5 4.505859 L 28.5 20.742188 C 28.5 21.269531 27.78125 22.025391 27.291016 22.025391 L 18.826172 22.009766 L 18.826172 23.333984 C 18.826172 23.857422 18.414062 24.5 17.925781 24.5 L 4.4375 24.5 C 4.408203 24.5 4.378906 24.5 4.345703 24.5 Z " transform="matrix(2 0 0 2 0 2)"/>
<path style="fill:#f5c14e" d="M 1.548828 5.5 C 0.980469 5.546875 0.5 6.007812 0.5 6.501953 L 0.5 25.494141 C 0.5 26.019531 1.052734 26.5 1.662109 26.5 L 30.337891 26.5 C 30.947266 26.5 31.5 26.019531 31.5 25.494141 L 31.5 9.257812 C 31.5 8.730469 30.609375 7.974609 30 7.974609 L 19.503906 7.990234 L 19.503906 6.666016 C 19.503906 6.142578 18.994141 5.5 18.386719 5.5 L 1.662109 5.5 C 1.626953 5.5 1.589844 5.5 1.548828 5.5 Z " transform="matrix(2 0 0 2 0 2)"/>
</g>
<g style="fill:#e9a439">
<path d="M 25.671875 36.003906 C 25.230469 36.023438 24.816406 36.191406 24.503906 36.464844 C 23.882812 37.015625 23.824219 37.945312 24.394531 38.535156 L 29.648438 43.53125 C 30.015625 43.847656 30.550781 44.035156 31.070312 43.996094 C 31.488281 43.96875 31.898438 43.789062 32.199219 43.53125 L 37.453125 38.714844 C 37.785156 38.433594 37.984375 38.046875 38 37.644531 C 38.03125 37.011719 37.574219 36.390625 36.90625 36.144531 C 36.234375 35.898438 35.398438 36.042969 34.898438 36.503906 L 30.996094 39.925781 L 26.910156 36.324219 C 26.570312 36.078125 26.113281 35.980469 25.671875 36.003906 Z "/>
<path d="M 31 26 C 30.476562 26 30 26.53125 30 27.125 L 30 32.832031 C 29.980469 33.4375 30.464844 34 31 34 C 31.03125 34 31.0625 34 31.09375 34 C 31.597656 33.949219 32.019531 33.40625 32 32.832031 L 32 27.125 C 32 26.53125 31.523438 26 31 26 Z "/>
<path d="M 27 30 C 26.433594 30 25.925781 30.417969 26.007812 30.8125 L 26.007812 33.277344 C 25.988281 33.675781 26.53125 34.035156 27.09375 33.996094 C 27.585938 33.957031 28.011719 33.625 27.992188 33.277344 L 27.992188 30.8125 C 28.074219 30.417969 27.566406 30 27 30 Z "/>
<path d="M 35 30 C 34.433594 30 33.925781 30.417969 34.007812 30.8125 L 34.007812 33.277344 C 33.988281 33.675781 34.53125 34.035156 35.09375 33.996094 C 35.585938 33.957031 36.011719 33.625 35.992188 33.277344 L 35.992188 30.8125 C 36.074219 30.417969 35.566406 30 35 30 Z "/>
</g>
</svg>
